X: 31372
T: Paddy O'Rafferty
R: jig
M: 6/8
K: Amixolydian
|:cAF ~E2F|ABc ded|cAF ~E2F|AcB AFE|
cAF ~E2F|ABc d2d|eae ~c3|BcA BAF:|
|:Acc Acc|Acc dcB|Acc Acc|AcB AFE|
Acc Acc|ABc efe|afe cBA|B2c BAF:|

